assets/images/pago-on.svg

<svg width="30" height="30" viewBox="0 0 30 30" fill="none" xmlns="http://www.w3.org/2000/svg">
<rect width="30" height="30" rx="15" fill="#5F2167"/>
<path fill-rule="evenodd" clip-rule="evenodd" d="M21.1816 9.35059H13.2685C12.8161 9.35059 12.4501 9.71663 12.4501 10.169V13.1878H13.0629V12.3447H21.3872V15.347C21.3872 15.4622 21.2926 15.5526 21.1816 15.5526H18.1216V16.1654H21.1816C21.634 16.1654 22 15.7994 22 15.347V10.169C22 9.71663 21.634 9.35059 21.1816 9.35059ZM21.3872 11.6785H13.0629V11.3042H21.3872V11.6785ZM21.3872 10.6378H13.0629V10.169C13.0629 10.0539 13.1575 9.96339 13.2685 9.96339H21.1816C21.2967 9.96339 21.3872 10.058 21.3872 10.169V10.6378Z" fill="#FAFBFD"/>
<path d="M12.8161 16.3873H8.97885V16.8809H12.8161V16.3873Z" fill="#FAFBFD"/>
<path d="M8.97885 15.4005H12.8161V15.894H8.97885V15.4005Z" fill="#FAFBFD"/>
<path d="M14.2638 16.5234L14.2473 16.511L13.9882 16.8524L14.0047 16.8647C14.1322 16.9634 14.2062 17.1074 14.2062 17.2678C14.2062 17.4241 14.1322 17.5681 14.0088 17.6668L13.9923 17.6791L14.2432 17.9998L14.2556 18.0163L14.272 18.0039C14.5023 17.823 14.6339 17.5557 14.6339 17.2678C14.6339 16.9758 14.5023 16.7044 14.2638 16.5234Z" fill="#FAFBFD"/>
<path d="M14.7574 15.8941L14.7738 15.9065C15.1933 16.2396 15.4319 16.7332 15.4319 17.272C15.4319 17.8025 15.1974 18.296 14.782 18.6291L14.7656 18.6414L14.4941 18.3083L14.5106 18.296C14.8232 18.0452 15.0041 17.6709 15.0041 17.272C15.0041 16.8689 14.8232 16.4946 14.5065 16.2437L14.49 16.2314L14.7574 15.8941Z" fill="#FAFBFD"/>
<path d="M15.2797 15.2855L15.2632 15.2732L15.0041 15.5899L14.9918 15.6063L15.0082 15.6187C15.51 16.0259 15.7979 16.6263 15.7979 17.2679C15.7979 17.9095 15.51 18.51 15.0123 18.9131L14.9959 18.9253L15.255 19.242L15.2673 19.2585L15.2838 19.2461C15.8842 18.7608 16.2256 18.037 16.2256 17.2679C16.2256 16.4947 15.8801 15.7708 15.2797 15.2855Z" fill="#FAFBFD"/>
<path fill-rule="evenodd" clip-rule="evenodd" d="M8.81844 13.8337H16.7315C17.1839 13.8337 17.5499 14.1997 17.5499 14.6521V19.8302C17.5499 20.2826 17.1839 20.6486 16.7315 20.6486H8.81844C8.36605 20.6486 8 20.2826 8 19.8302V14.6521C8 14.1997 8.36605 13.8337 8.81844 13.8337ZM8.6128 18.3329H9.71915C9.95767 18.3329 10.151 18.5262 10.1551 18.7647V20.0358H16.7315C16.8425 20.0358 16.9371 19.9454 16.9371 19.8302V14.6521C16.9371 14.5411 16.8466 14.4465 16.7315 14.4465H8.81844C8.70742 14.4465 8.6128 14.537 8.6128 14.6521V18.3329ZM8.6128 18.9457V19.8302C8.6128 19.9413 8.7033 20.0358 8.81844 20.0358H9.5423V18.9457H8.6128Z" fill="#FAFBFD"/>
</svg>

<svg xmlns="http://www.w3.org/2000/svg" width="30" height="30" fill="none"><rect width="30" height="30" fill="#5F2167" rx="15"/><path fill="#FAFBFD" fill-rule="evenodd" d="M21.182 9.35h-7.913a.82.82 0 0 0-.819.819v3.019h.613v-.843h8.324v3.002a.206.206 0 0 1-.205.206h-3.06v.612h3.06a.82.82 0 0 0 .818-.818v-5.178a.82.82 0 0 0-.818-.818m.205 2.329h-8.324v-.375h8.324zm0-1.041h-8.324v-.469c0-.115.095-.206.205-.206h7.914c.115 0 .205.095.205.206z" clip-rule="evenodd"/><path fill="#FAFBFD" d="M12.816 16.387H8.98v.494h3.837zM8.979 15.4h3.837v.494H8.98zM14.264 16.523l-.017-.012-.259.341.017.013a.505.505 0 0 1 .004.802l-.017.012.251.32.013.017.016-.012a.93.93 0 0 0-.008-1.48"/><path fill="#FAFBFD" d="m14.757 15.894.017.012c.42.334.658.827.658 1.366 0 .53-.235 1.024-.65 1.357l-.016.012-.272-.333.017-.012a1.31 1.31 0 0 0-.004-2.052l-.017-.013z"/><path fill="#FAFBFD" d="m15.28 15.286-.017-.013-.259.317-.012.016.016.013a2.116 2.116 0 0 1 .004 3.294l-.016.012.259.317.012.017.017-.013c.6-.485.942-1.209.942-1.978a2.54 2.54 0 0 0-.946-1.982"/><path fill="#FAFBFD" fill-rule="evenodd" d="M8.818 13.834h7.914c.452 0 .818.366.818.818v5.178a.82.82 0 0 1-.819.819H8.819A.82.82 0 0 1 8 19.83v-5.178c0-.452.366-.818.818-.818m-.205 4.499h1.106c.239 0 .432.193.436.432v1.27h6.577c.11 0 .205-.09.205-.205v-5.178a.206.206 0 0 0-.206-.205H8.819a.206.206 0 0 0-.205.205zm0 .613v.884c0 .111.09.206.205.206h.724v-1.09z" clip-rule="evenodd"/></svg>
